!!!!SEGMENT: pl-wtm--r-1589--001_stefani-jozef--vesperae-de-apostolis-antiphona.krn
!!!cenid: 18xx:2349
!!!COM: Stefani, Józef
!!!COM-rism: pe30024097
!!!CDT: 1800/04/16-1876/03/19
!!!CNT: Polish
!!!OTL: Vesperae de Apostolis – Antiphona
!!!PDT:
!!!AGN: Sacred; Vespers
!!!SMS-siglum: PL-Wtm
!!!SMS-shelfmark: R 1589
!!!NIFC-rismID: 1001115607
!!!URL-scan: http://repozytorium.nifc.pl/skany/pl-wtm-nut--r1589
!!!ONB-nifc: UWAGA: części: 5 Antyfon (001-005) i Magnificat (006)
!!!SMS-variant:
!!!SMS-altvar:
!!!OMD: Maestoso
**kern	**text	**dynam	**kern	**dynam	**kern	**text	**dynam
*part3	*part3	*part3	*part2	*part2	*part1	*part1	*part1
*staff3	*staff3	*	*staff2	*	*staff1	*staff1	*
*I"[Basso]	*	*	*I"[Tenore 2]	*	*I"[Tenore 1]	*	*
*clefF4	*	*	*clefC4	*	*clefC4	*	*
*k[b-e-]	*	*	*k[b-e-]	*	*k[b-e-]	*	*
*M4/4	*	*	*M4/4	*	*M4/4	*	*
*met(c)	*	*	*met(c)	*	*met(c)	*	*
=1	=1	=1	=1	=1	=1	=1	=1
*all\right	*	*	*all\right	*	*all\right	*	*
4r	.	.	4r	.	4r	.	.
!	!	!LO:DY:rj	!	!	!LO:TX:a:t=Antiphona Ima	!	!LO:DY:rj
4B-\	Hoc	f	4B-\	.	4d\	Hoc	f
*2\right	*	*	*2\right	*	*2\right	*	*
[2A\	est	.	[2c\	.	[2f\	est	.
=2	=2	=2	=2	=2	=2	=2	=2
4A\]	.	.	4c\]	.	4f\]	.	.
4B-\	prae-	.	4B-\	.	4d\	prae-	.
4.G\	-ce-	.	4.B-\	.	4.B-\	-ce-	.
8F\	-ptum	.	8A\	.	8c\	-ptum	.
=3	=3	=3	=3	=3	=3	=3	=3
(>2BB-/	me-	.	(2B-\	.	(2d\	me-	.
2D/)	.	.	2F/)	.	2B-\)	.	.
=4	=4	=4	=4	=4	=4	=4	=4
2.F\	-um,	.	2.A\	.	2.c\	-um,	.
!	!	!LO:DY:t=piano e dolce	!	!	!	!	!LO:DY:t=p. e dolce
4F\	et	p	4A\	.	4c\	et	p
=5	=5	=5	=5	=5	=5	=5	=5
2G\	di-	.	2B-\	.	2e-\	di-	.
2A\	-li-	.	2c\	.	(8e-\L	-li-	.
.	.	.	.	.	8c\	.	.
.	.	.	.	.	8f\	.	.
.	.	.	.	.	8e-\J)	.	.
!!LO:LB:g=original
=6	=6	=6	=6	=6	=6	=6	=6
4B-\	-ga-	.	4B-\	.	4d\	-ga-	.
4G^\	-tis	.	4B-\	.	(8e-^\L	-tis	.
.	.	.	.	.	8d\J)	.	.
4A\	di-	.	4A\	.	4c\	di-	.
4F#X^\	-li-	.	4A\	.	(8d^\L	-li-	.
.	.	.	.	.	8c\J)	.	.
=7	=7	=7	=7	=7	=7	=7	=7
(4G\	-ga-	.	2G/	.	(4B-\	-ga-	.
4Fn\)	.	.	.	.	4Bn\)	.	.
4.E-\	-tis	.	4.G/	.	4.c\	-tis	.
8En\	in-	.	8G/	.	8B-X\	in-	.
=8	=8	=8	=8	=8	=8	=8	=8
2F\	-vi-	.	(4.F/	.	(4.A\	-vi-	.
.	.	.	8G/)	.	8B-\)	.	.
4F\	-cem,	.	4A/	.	4c\	-cem,	.
!	!	!LO:DY:rj	!	!LO:DY:rj	!	!	!LO:DY:rj
4F\	si-	f	4f\	f	4f\	si-	f
=9	=9	=9	=9	=9	=9	=9	=9
4.d\	-cut	.	4.d\	.	4.d\	-cut	.
8A\	di-	.	8A\	.	8A\	di-	.
4B-\	-le-	.	4B-\	.	4B-\	-le-	.
4d\	-xi	.	4d\	.	4d\	-xi	.
!!LO:LB:g=original
=10	=10	=10	=10	=10	=10	=10	=10
2.F\	vos.	.	2.F/	.	2.F/	vos.	.
4r	.	.	4r	.	4r	.	.
=11	=11	=11	=11	=11	=11	=11	=11
!	!	!LO:DY:t=dolce e piano	!	!	!	!	!LO:DY:t=dolce e piano
4E-\	si-	p	4G/	.	4G/	si-	p
4E-\	-cut	.	4G/	.	(8Bn\L	-cut	.
.	.	.	.	.	8c\J)	.	.
4E-\	di-	.	4G/	.	4G/	di-	.
8C\	-le-	.	8G/	.	8e-\	-le-	.
8E-\	-xi	.	8G/	.	8c\	-xi	.
=12	=12	=12	=12	=12	=12	=12	=12
2F\	di-	.	(4B-\	.	(4d\	di-	.
.	.	.	8A\L	.	(8c\L	.	.
.	.	.	8B-\J)	.	8d\J))	.	.
4F\	-le-	.	4c\	.	4e-\	-le-	.
4F\	-xi	.	4A\	.	4f\	-xi	.
=13	=13	=13	=13	=13	=13	=13	=13
4BB-/	vos.	.	4B-\	.	4d\	vos,	.
!	!	!LO:DY:rj	!	!	!	!	!
(4D\	a-	f	(4B-\	.	(4f\	a-	f
4C\	.	.	4G\	.	4e-\	.	.
4F\)	.	.	4A\)	.	4c\	.	.
=14	=14	=14	=14	=14	=14	=14	=14
4BB-/	-men	.	4B-\	.	4d\)	-men	.
(4G\	a-	.	(4B-\	.	(4d\	a-	.
4C/	.	.	4G/	.	4e-\	.	.
4F\)	.	.	4A/)	.	4c\)	.	.
!!LO:LB:g=original
=15	=15	=15	=15	=15	=15	=15	=15
2BB-/	-men.	.	2B-\	.	2B-\	-men.	.
4r	.	.	4r	.	4r	.	.
==	==	==	==	==	==	==	==
*-	*-	*-	*-	*-	*-	*-	*-
!!!system-decoration: {s1,s2,s3}
!!!RDF**kern: > = above
!!!ENC: Marta Lawrence
!!!END: 2021-06-14
!!!ENC: Anastazja Marusiak
!!!END: 2021-06-04
